assets/images/crop.svg

<?xml version="1.0" encoding="UTF-8"?>
<svg id="Layer_1" xmlns="http://www.w3.org/2000/svg" xmlns:xlink="http://www.w3.org/1999/xlink" version="1.1" viewBox="0 0 20 20">
  <!-- Generator: Adobe Illustrator 30.1.0, SVG Export Plug-In . SVG Version: 2.1.1 Build 136)  -->
  <defs>
    <clipPath id="clippath">
      <rect width="20" height="20" fill="none"/>
    </clipPath>
  </defs>
  <g clip-path="url(#clippath)">
    <g>
      <path d="M4.5,0c.83,0,1.5.67,1.5,1.5v1.5h11v11h1.5c.83,0,1.5.67,1.5,1.5s-.67,1.5-1.5,1.5h-1.5v1.5c0,.83-.67,1.5-1.5,1.5s-1.5-.67-1.5-1.5V6H1.5C.67,6,0,5.33,0,4.5s.67-1.5,1.5-1.5h1.5v-1.5c0-.83.67-1.5,1.5-1.5Z"/>
      <path d="M6,14h6v3H3v-9h3v6Z"/>
    </g>
  </g>
</svg>

<svg xmlns="http://www.w3.org/2000/svg" viewBox="0 0 20 20"><defs><clipPath id="a"><path fill="none" d="M0 0h20v20H0z"/></clipPath></defs><g clip-path="url(#a)"><path d="M4.5 0C5.33 0 6 .67 6 1.5V3h11v11h1.5c.83 0 1.5.67 1.5 1.5s-.67 1.5-1.5 1.5H17v1.5c0 .83-.67 1.5-1.5 1.5s-1.5-.67-1.5-1.5V6H1.5C.67 6 0 5.33 0 4.5S.67 3 1.5 3H3V1.5C3 .67 3.67 0 4.5 0"/><path d="M6 14h6v3H3V8h3z"/></g></svg>
